X:1
T: The First Month of Summer
C:
R:Reel
Q: 232
K:A
M:4/4
L:1/8
ed|cA FA EF EC|EA dc Bd cB|AF ((3FFF) EF EC|EA GB Ad cB|
cA FA EF EC|EA dc Bc df|ec Bc AB AF|EA GB A2 cd|
|:eA ((3AAA) ec fc|ec ((3ccc) fe af|eA ((3AAA) ec fe|dc BA GA Bc|
eA ((3AAA) ec fc|ec de fe fg|ag ab ag fe|dc BA GB ed:|
cA FA EF EC|EA dc Bd cB|AF ((3FFF) EF EC|EA GB Ad cB|
cA FA EF EC|EA dc Bc df|ec Bc AB AF|EA GB A2||
